Sources/FrostedUI/Resources/Icons.xcassets/atom20.imageset/atom-20.svg

<svg width="20" height="20" viewBox="0 0 20 20" fill="none" xmlns="http://www.w3.org/2000/svg" data-fui-icon="true">
  <g clip-path="url(#clip0_882_268)">
    <path
      d="M10.1897 0.00683594C11.1231 0.0713603 11.85 0.604435 12.3538 1.17969C12.8937 1.79634 13.3122 2.60243 13.6331 3.46875C13.651 3.51728 13.6673 3.56681 13.6848 3.61621C13.7368 3.60663 13.7887 3.59666 13.8401 3.58789C14.7506 3.43266 15.6582 3.39247 16.4622 3.55176C17.2121 3.70045 18.0373 4.06295 18.5598 4.83887L18.6604 5C19.1728 5.88774 19.0784 6.85672 18.8157 7.62891C18.5516 8.40461 18.0625 9.16907 17.4729 9.87988C17.4398 9.91982 17.4045 9.95903 17.3704 9.99902C17.4047 10.0393 17.4395 10.0789 17.4729 10.1191C18.0627 10.8302 18.5516 11.5961 18.8157 12.3721C19.0783 13.1442 19.1727 14.1124 18.6604 15C18.1478 15.8877 17.2613 16.2907 16.4612 16.4492C15.6573 16.6084 14.7506 16.5664 13.8401 16.4111C13.7885 16.4023 13.7369 16.3915 13.6848 16.3818C13.6671 16.4318 13.6512 16.4821 13.6331 16.5312C13.3122 17.3976 12.8937 18.2037 12.3538 18.8203C11.8164 19.4339 11.0252 19.9999 10.0002 20C8.9751 20 8.18315 19.434 7.64575 18.8203C7.10582 18.2037 6.68827 17.3975 6.36743 16.5312C6.34921 16.482 6.33248 16.4319 6.3147 16.3818C6.26288 16.3914 6.21168 16.4024 6.1604 16.4111C5.24976 16.5664 4.34233 16.6085 3.53833 16.4492C2.73828 16.2907 1.85267 15.8875 1.34009 15C0.82775 14.1124 0.922138 13.1442 1.18481 12.3721C1.44887 11.5961 1.93776 10.8302 2.52759 10.1191C2.56085 10.079 2.59491 10.0392 2.62915 9.99902C2.59513 9.95912 2.56064 9.91973 2.52759 9.87988C1.93788 9.16896 1.44788 8.40474 1.18384 7.62891C0.921054 6.85667 0.827568 5.88779 1.34009 5L1.44067 4.83887C1.96326 4.06294 2.78835 3.70039 3.53833 3.55176C4.34236 3.39245 5.24972 3.4326 6.1604 3.58789C6.21162 3.59663 6.26294 3.60666 6.3147 3.61621C6.33228 3.5667 6.34942 3.51739 6.36743 3.46875C6.68827 2.60248 7.10582 1.79633 7.64575 1.17969C8.18315 0.565976 8.9751 1.28114e-05 10.0002 0L10.1897 0.00683594ZM9.99927 15.2031C9.24026 15.536 8.49463 15.8121 7.77954 16.0254C8.31314 17.4591 9.03597 18.3796 9.83813 18.4893L10.0002 18.5C10.8666 18.4998 11.6499 17.5544 12.219 16.0254C11.5039 15.812 10.7582 15.5361 9.99927 15.2031ZM3.67114 11.0898C2.63152 12.3472 2.20593 13.4996 2.63892 14.25L2.72876 14.3848C3.22469 15.0245 4.38291 15.1891 5.89087 14.9346C5.71816 14.2088 5.58357 13.4251 5.49243 12.6016C4.82472 12.1107 4.21335 11.6024 3.67114 11.0898ZM16.3284 11.0898C15.786 11.6026 15.1741 12.1106 14.5061 12.6016C14.4151 13.4252 14.2803 14.2087 14.1077 14.9346C15.6163 15.1894 16.7746 15.0246 17.2708 14.3848L17.3616 14.25C17.7946 13.4996 17.3682 12.3473 16.3284 11.0898ZM7.16919 13.7236C7.22322 14.0226 7.2827 14.3118 7.34888 14.5898C7.62269 14.5082 7.90286 14.4151 8.18872 14.3125C8.01782 14.2192 7.84662 14.1239 7.67603 14.0254C7.50478 13.9265 7.33607 13.8254 7.16919 13.7236ZM12.8293 13.7236C12.6629 13.8251 12.4952 13.9268 12.3245 14.0254C12.1535 14.1241 11.9811 14.219 11.8098 14.3125C12.0952 14.415 12.3753 14.5073 12.6487 14.5889C12.7148 14.3111 12.7754 14.0223 12.8293 13.7236ZM10.0002 6.44434C9.48107 6.69191 8.95412 6.96952 8.42603 7.27441C7.89828 7.57912 7.39485 7.89607 6.92114 8.22168C6.87592 8.79519 6.85181 9.39008 6.85181 10C6.85181 10.6099 6.8769 11.2048 6.92212 11.7783C7.39572 12.1039 7.89841 12.4219 8.42603 12.7266C8.95342 13.0311 9.48074 13.3054 9.99927 13.5527C10.5182 13.3053 11.0466 13.0313 11.5745 12.7266C12.1023 12.4218 12.6046 12.103 13.0784 11.7773C13.1235 11.2041 13.1477 10.6096 13.1477 10C13.1477 9.39042 13.1235 8.79587 13.0784 8.22266C12.6046 7.89696 12.1014 7.57918 11.5735 7.27441C11.0456 6.96961 10.5193 6.69184 10.0002 6.44434ZM10.0002 8.74023C10.6956 8.74036 11.259 9.30461 11.259 10C11.259 10.6954 10.6956 11.2587 10.0002 11.2588C9.30479 11.2588 8.7405 10.6955 8.74048 10C8.74048 9.30453 9.30477 8.74023 10.0002 8.74023ZM5.35864 9.41016C5.12721 9.60606 4.90875 9.80404 4.70142 10C4.90859 10.1958 5.12739 10.3931 5.35864 10.5889C5.354 10.3938 5.35181 10.1974 5.35181 10C5.35181 9.80225 5.35398 9.60556 5.35864 9.41016ZM14.6399 9.41113C14.6445 9.60623 14.6477 9.80257 14.6477 10C14.6477 10.1974 14.6445 10.3938 14.6399 10.5889C14.8714 10.3929 15.0907 10.196 15.2981 10C15.0907 9.80402 14.8714 9.60706 14.6399 9.41113ZM5.89087 5.06445C4.28255 4.79298 3.07219 4.99996 2.63892 5.75C2.20594 6.50025 2.63194 7.65188 3.67114 8.90918C4.21344 8.39675 4.82463 7.88812 5.49243 7.39746C5.58361 6.57388 5.71812 5.79024 5.89087 5.06445ZM17.3616 5.75C16.9282 4.99973 15.7167 4.7926 14.1077 5.06445C14.2803 5.79032 14.4151 6.57379 14.5061 7.39746C15.1742 7.88826 15.7859 8.39659 16.3284 8.90918C17.3677 7.65188 17.7944 6.50031 17.3616 5.75ZM7.35083 5.41113C7.28469 5.68898 7.2232 5.97763 7.16919 6.27637C7.33607 6.17465 7.50479 6.07347 7.67603 5.97461C7.84701 5.87589 8.01842 5.78006 8.1897 5.68652C7.90437 5.58407 7.62415 5.4927 7.35083 5.41113ZM12.6487 5.41113C12.3754 5.49271 12.0951 5.58406 11.8098 5.68652C11.9811 5.78005 12.1525 5.8759 12.3235 5.97461C12.4942 6.07317 12.663 6.17399 12.8293 6.27539C12.7754 5.97704 12.7147 5.68864 12.6487 5.41113ZM10.0002 1.5C9.1339 1.50003 8.34884 2.44475 7.77954 3.97363C8.49455 4.18705 9.24034 4.46287 9.99927 4.7959C10.7581 4.46284 11.504 4.18712 12.219 3.97363C11.6499 2.44517 10.8664 1.50021 10.0002 1.5Z"
      fill="currentColor"
    />
  </g>
  <defs>
    <clipPath id="clip0_882_268"><path fill="currentColor" d="M0 0H20V20H0z" /></clipPath>
  </defs>
</svg>

<svg xmlns="http://www.w3.org/2000/svg" width="20" height="20" fill="none" data-fui-icon="true" viewBox="0 0 20 20"><g clip-path="url(#a)"><path fill="currentColor" d="M10.19.007c.933.064 1.66.597 2.164 1.173.54.616.958 1.422 1.28 2.289l.05.147q.08-.015.156-.028c.91-.155 1.818-.196 2.622-.036.75.148 1.575.51 2.098 1.287l.1.161c.513.888.418 1.857.156 2.629-.264.776-.753 1.54-1.343 2.25q-.05.06-.103.12.053.06.103.12c.59.711 1.079 1.477 1.343 2.253.262.772.357 1.74-.156 2.628-.512.888-1.399 1.29-2.199 1.45-.804.158-1.71.116-2.62-.039l-.156-.03-.052.15c-.32.867-.74 1.673-1.28 2.29C11.817 19.433 11.026 20 10 20s-1.817-.566-2.354-1.18c-.54-.616-.958-1.422-1.279-2.289l-.052-.15q-.078.016-.155.03c-.91.155-1.818.197-2.622.038-.8-.158-1.685-.562-2.198-1.449-.512-.888-.418-1.856-.155-2.628.264-.776.753-1.542 1.343-2.253l.101-.12-.101-.12c-.59-.71-1.08-1.474-1.344-2.25C.92 6.857.828 5.888 1.34 5l.1-.161c.523-.776 1.348-1.139 2.098-1.287.804-.16 1.712-.12 2.622.036l.155.028.052-.147c.321-.867.739-1.673 1.279-2.29C8.183.567 8.976 0 10 0zM10 15.203c-.76.333-1.505.61-2.22.822.533 1.434 1.256 2.355 2.058 2.464L10 18.5c.867 0 1.65-.946 2.219-2.475-.715-.213-1.46-.489-2.22-.822M3.67 11.09c-1.04 1.257-1.465 2.41-1.032 3.16l.09.135c.496.64 1.654.804 3.162.55a19 19 0 0 1-.399-2.333c-.667-.491-1.279-1-1.82-1.512m12.657 0a19 19 0 0 1-1.822 1.512 19 19 0 0 1-.398 2.333c1.508.254 2.667.09 3.163-.55l.09-.135c.434-.75.007-1.903-1.033-3.16M7.17 13.724q.081.449.18.866.411-.124.84-.277a25 25 0 0 1-1.02-.59m5.66 0q-.249.153-.505.301-.256.149-.514.287.428.154.839.277.099-.418.18-.865M10 6.444q-.78.373-1.574.83-.793.458-1.505.948a22.7 22.7 0 0 0 .001 3.556A22.7 22.7 0 0 0 10 13.553a23 23 0 0 0 1.576-.826q.792-.46 1.503-.95a23 23 0 0 0 0-3.554 23 23 0 0 0-1.505-.949A23 23 0 0 0 10 6.444m0 2.296A1.26 1.26 0 1 1 10 11.26 1.26 1.26 0 0 1 10 8.74m-4.641.67q-.347.295-.658.59.311.295.658.589a25 25 0 0 1 0-1.179m9.28.001a25 25 0 0 1 0 1.178q.348-.295.66-.589a16 16 0 0 0-.66-.589M5.892 5.064C4.283 4.793 3.072 5 2.639 5.75S2.632 7.652 3.67 8.91a19 19 0 0 1 1.821-1.513 19 19 0 0 1 .399-2.333m11.47.686c-.433-.75-1.644-.957-3.253-.686.172.726.307 1.51.398 2.333.668.491 1.28 1 1.822 1.512 1.04-1.257 1.466-2.409 1.034-3.159m-10.01-.339q-.1.418-.182.865a25 25 0 0 1 1.02-.59 16 16 0 0 0-.838-.275m5.298 0q-.411.122-.84.276a25 25 0 0 1 1.02.588 16 16 0 0 0-.18-.864M10 1.5c-.866 0-1.651.945-2.22 2.474.715.213 1.46.489 2.22.822a19 19 0 0 1 2.219-.822C11.649 2.445 10.866 1.5 10 1.5"/></g><defs><clipPath id="a"><path fill="currentColor" d="M0 0h20v20H0z"/></clipPath></defs></svg>
